X:58
T:Robinson Hornpipe. JBu.58
O:England,South Yorkshire
S:Joshua Burnett’s MS,c1835,S.Yorkshire
M:C
L:1/8
Q:1/2=90
R:.hornpipe
Z:vmp.R.Greig.2011
K:F
cd|fefg fcAc|dfeg fedc|BcdB ABcB|GABc BAGF|
fefg afcA|GABc defg|ecae ecdB|c2c2c2:|
|:”^rest added”z2|c2c2 cdfa|bgaf fdcB|B2B2Bdfd|edcB AGFE|
fefg afcA|GABc defg|fcae ecdB|c2c2c2:|

